packages/icons/src/SVG/dashboard-solid.svg

<svg width="12" height="12" viewBox="0 0 12 12" fill="none" xmlns="http://www.w3.org/2000/svg">
<path d="M6 7.25C6.41421 7.25 6.75 6.91421 6.75 6.5C6.75 6.08579 6.41421 5.75 6 5.75C5.58579 5.75 5.25 6.08579 5.25 6.5C5.25 6.91421 5.58579 7.25 6 7.25Z" fill="#4C505B"/>
<path fill-rule="evenodd" clip-rule="evenodd" d="M11.1973 10C11.7078 9.11748 12 8.09286 12 7C12 3.68629 9.31371 1 6 1C2.68629 1 0 3.68629 0 7C0 8.09286 0.292183 9.11748 0.802693 10H11.1973ZM5.5 2.02469V3.53544C5.6633 3.51209 5.83024 3.5 6 3.5C6.16976 3.5 6.3367 3.51209 6.5 3.53544V2.02469C6.33555 2.00836 6.16875 2 6 2C5.83125 2 5.66445 2.00836 5.5 2.02469ZM2.36243 3.56952L3.42373 4.63083C3.65105 4.38377 3.91344 4.16949 4.20302 3.9959L3.11963 2.91251C2.84564 3.10593 2.59196 3.32622 2.36243 3.56952ZM2.5 7H1C1 6.65753 1.03443 6.32311 1.10002 6H2.64494C2.55064 6.31685 2.5 6.65251 2.5 7ZM10.9 6H9.35506C9.44936 6.31685 9.5 6.65251 9.5 7H11C11 6.65753 10.9656 6.32311 10.9 6ZM7.5 6.5C7.5 6.31349 7.46596 6.13492 7.40375 5.97018L8.99306 4.38087L8.28595 3.67377L6.75572 5.204C6.5338 5.07432 6.27558 5 6 5C5.17157 5 4.5 5.67157 4.5 6.5C4.5 7.32843 5.17157 8 6 8C6.82843 8 7.5 7.32843 7.5 6.5Z" fill="#4C505B"/>
</svg>

<!-- Generated by IcoMoon.io -->
<svg version="1.1" xmlns="http://www.w3.org/2000/svg" width="12" height="12" viewBox="0 0 12 12">
<title>dashboard-solid</title>
<path d="M6 7.25c0.414 0 0.75-0.336 0.75-0.75s-0.336-0.75-0.75-0.75c-0.414 0-0.75 0.336-0.75 0.75s0.336 0.75 0.75 0.75z"></path>
<path d="M11.197 10h-10.395c-0.511-0.883-0.803-1.907-0.803-3 0-3.314 2.686-6 6-6s6 2.686 6 6c0 1.093-0.292 2.117-0.803 3zM5.5 2.025v1.511c0.163-0.023 0.33-0.035 0.5-0.035s0.337 0.012 0.5 0.035v-1.511c-0.164-0.016-0.331-0.025-0.5-0.025s-0.336 0.008-0.5 0.025zM2.362 3.57l1.061 1.061c0.227-0.247 0.49-0.461 0.779-0.635l-1.083-1.083c-0.274 0.193-0.528 0.414-0.757 0.657zM2.5 7c0-0.347 0.051-0.683 0.145-1h-1.545c-0.066 0.323-0.1 0.658-0.1 1h1.5zM10.9 6h-1.545c0.094 0.317 0.145 0.653 0.145 1h1.5c0-0.342-0.034-0.677-0.1-1zM7.5 6.5c0-0.187-0.034-0.365-0.096-0.53l1.589-1.589-0.707-0.707-1.53 1.53c-0.222-0.13-0.48-0.204-0.756-0.204-0.828 0-1.5 0.672-1.5 1.5s0.672 1.5 1.5 1.5c0.828 0 1.5-0.672 1.5-1.5z"></path>
</svg>
